!!!COM: Absi, Tarish Ayyoabi
!!!CDT: b.1943
!!!OTL: National Anthem, Yemen
!!!ENC: Davis, Matthew J.
!!Vocal Line Only
**kern
*clefG2
*k[b-]
*F:
*M6/8
=1-
8ff
=2
2.ff
==3
4cc
8cc
4b-
8b-
=4
4g
8g
4f
8f
=5
4f
8f
4.f
=6
4.f
4r
8r
=7
4a
8a
4a
8a
=8
4a
8a
4a
8a
=9
8a
8g
8a
4.b-
=10
2.b-
=11
4a
8b-
4cc
8cc
=12
4cc
8cc
4cc
8cc
=13
8cc
8b-
8cc
4.dd
=14
2.dd
=15
4cc
8dd
4ee
8ee
=16
8r
8ee
8ee
4ee
8ee
=17
8ee
8dd
8ee
4.ff
=18
2.ff
=19
4ff
8ff
4ff
8b-
=20
4b-
8b-
4b-
8g
=21
4a
8b-
4a
8g
=22
2.f
==!|:23
4ff
8ff
4ff
8ff
=24
4ff
8ff
8ee
8dd
8cc
=25
8r
8dd
8ee
4gg
8ff
=26
2.ff
===:|!27
4gg
8gg
4ff
8ff
=28
4ee-
8ee-
4dd
8cc
=29
4b-
8a
4cc
8b-
=30
2.b-
=31
4ff
8ff
4dd
8dd
=32
4b-
8b-
4a
8g
=33
4cc
8cc
4a
8g
=34
2.f
==|!
*-
